X:41
T:Tombigbee Waltz
R:Waltz
M:3/4
L:1/4
G:Key: G
Z:abc-transcription Josh Larios <hades@elsewhere.org>, 2017.02.13
Z:abc-copyright This transcription is licensed under a Creative Commons Attribution-ShareAlike 4.0 International License.
K:G
[P:A]y0|: B/A/ |"G"GBB | d2 B/A/ | GBB | d2 B | "Am"BAA |
| ABd |1 "C"e2 d | "D7"B2  :|2 "C"ed "D"F | "G"G2 || 
[P:B]y0|: d | "G"g2 d | "G/B"g2 d | "C"e>dc | "G"d2 B | "Am"BAA |
|ABd |1 "C"e2 d | "D"B2 :|2 "C"ed "D"F | "G"G2 |

